Newaita-dark/apps/64/pcloud.svg

<svg height="64pt" viewBox="0 0 64 64" width="64pt" xmlns="http://www.w3.org/2000/svg" xmlns:xlink="http://www.w3.org/1999/xlink"><linearGradient id="a"><stop offset="0" stop-opacity=".313726"/><stop offset=".222222" stop-opacity=".27451"/><stop offset="1" stop-opacity="0"/></linearGradient><radialGradient id="b" cx="450.908936" cy="189.579361" gradientTransform="matrix(.00000035 -.156265 -.281277 -.0000002 100.29217 121.396245)" gradientUnits="userSpaceOnUse" r="21.166656" xlink:href="#a"/><radialGradient id="c" cx="450.908936" cy="189.579361" gradientTransform="matrix(-.00000035 .156265 .281277 .0000002 -39.432195 -20.849378)" gradientUnits="userSpaceOnUse" r="21.166656" xlink:href="#a"/><radialGradient id="d" cx="450.908936" cy="189.579361" gradientTransform="matrix(-.00000035 -.156265 .281277 -.0000002 -39.432195 121.396245)" gradientUnits="userSpaceOnUse" r="21.166656" xlink:href="#a"/><radialGradient id="e" cx="450.908936" cy="189.579361" gradientTransform="matrix(.00000035 .156265 -.281277 .0000002 100.292166 -20.849379)" gradientUnits="userSpaceOnUse" r="21.166656" xlink:href="#a"/><linearGradient id="f" gradientTransform="matrix(.0267201 0 0 .125012 20.30012 21.083153)" gradientUnits="userSpaceOnUse" x1="255.323059" x2="255.323044" y1="233.5" y2="254.666656"><stop offset="0" stop-opacity=".27451"/><stop offset="1" stop-opacity="0"/></linearGradient><linearGradient id="g" gradientUnits="userSpaceOnUse" x1="31.753048" x2="31.753048" y1="50.27344800006" y2="10.58213599987"><stop offset="0" stop-color="#26c6da"/><stop offset="1" stop-color="#4dd0e1"/></linearGradient><linearGradient id="h" gradientUnits="userSpaceOnUse" x1="31.75304100006" x2="31.75304100006" y1="45.48352683618" y2="16.37656733629"><stop offset="0" stop-color="#e0e0e0"/><stop offset="1" stop-color="#eee"/></linearGradient><path d="m47.628906 50.273438h5.292969v-2.644532h-5.292969zm0 0" fill="url(#b)"/><path d="m13.230469 50.273438h-5.292969v2.644531h5.292969zm0 0" fill="url(#c)"/><path d="m13.230469 50.273438h-5.292969v-2.644532h5.292969zm0 0" fill="url(#d)"/><path d="m47.628906 50.273438h5.292969v2.644531h-5.292969zm0 0" fill="url(#e)"/><path d="m13.230469 49.613281h34.398437v3.304688h-34.398437zm0 0" fill="url(#f)"/><path d="m30.402344 10.558594c-10.261719 0-18.523438 8.726562-18.523438 19.566406v.5625c0 .355469.011719.710938.027344 1.058594-4.457031.289062-7.964844 4.089844-7.964844 8.773437v.941407c0 4.871093 3.792969 8.789062 8.507813 8.789062h7.394531v.019531h27.785156c7.332032 0 13.230469-5.902343 13.230469-13.230469 0-7.222656-5.730469-13.058593-12.910156-13.226562-2.476563-7.722656-9.375-13.253906-17.546875-13.253906zm0 0" fill="url(#g)"/><path d="m13.179688 31.75c-5.15625 0-9.308594 4.132812-9.308594 9.261719 0 .140625.003906.277343.007812.414062.214844-4.9375 4.28125-8.847656 9.300782-8.847656 5.019531 0 9.085937 3.910156 9.300781 8.847656.007812-.136719.011719-.273437.011719-.414062 0-5.128907-4.152344-9.261719-9.3125-9.261719zm0 0" fill="#fafafa" fill-opacity=".392157"/><path d="m30.402344 10.558594c-10.261719 0-18.523438 8.726562-18.523438 19.566406v.5625c0 .074219.003906.144531.003906.21875.117188-10.730469 8.332032-19.332031 18.519532-19.332031 8.171875 0 15.070312 5.53125 17.546875 13.253906 7.011719.164063 12.640625 5.730469 12.902343 12.71875.003907-.167969.007813-.339844.007813-.507813 0-7.222656-5.730469-13.058593-12.910156-13.226562-2.476563-7.722656-9.375-13.253906-17.546875-13.253906zm-18.519532 21.191406c-4.449218.296875-7.941406 4.097656-7.941406 8.769531v.941407.035156c.019532-4.664063 3.519532-8.449219 7.964844-8.734375-.015625-.335938-.023438-.671875-.023438-1.011719zm0 0" fill="#fff" fill-opacity=".392157"/><path d="m11.882812 29.890625c0 .078125-.003906.15625-.003906.234375v.5625c0 .015625.003906.03125.003906.046875h.023438c-.011719-.28125-.019531-.5625-.023438-.84375zm48.96875 6.640625c-.265624 7.09375-6.0625 12.726562-13.222656 12.726562h-27.785156v-.019531h-7.394531c-4.703125 0-8.488281-3.902343-8.507813-8.753906v.035156.941407c0 4.871093 3.792969 8.789062 8.507813 8.789062h7.394531v.019531h27.785156c7.332032 0 13.230469-5.902343 13.230469-13.230469 0-.171874-.003906-.339843-.007813-.507812zm0 0" fill-opacity=".235294"/><path d="m47.960938 23.8125c-7.148438 0-12.898438 5.902344-12.898438 13.230469 0 .167969 0 .332031.007812.496093.253907-7.097656 5.90625-12.734374 12.890626-12.734374 6.984374 0 12.636718 5.636718 12.890624 12.734374.003907-.164062.007813-.328124.007813-.496093 0-7.328125-5.753906-13.230469-12.898437-13.230469zm0 0" fill="#fafafa" fill-opacity=".392157"/><path d="m30.402344 10.371094c-10.367188 0-18.710938 8.820312-18.710938 19.753906v.5625c0 .300781.011719.597656.023438.894531-4.46875.382813-7.960938 4.226563-7.960938 8.9375v.941407c0 4.96875 3.878906 8.976562 8.695313 8.976562h7.316406c.027344.011719.050781.019531.078125.019531h27.785156c7.429688 0 13.417969-5.988281 13.417969-13.417969 0-7.277343-5.746094-13.164062-12.964844-13.40625-2.53125-7.730468-9.46875-13.261718-17.679687-13.261718zm0 .375c8.085937 0 14.914062 5.472656 17.367187 13.125.023438.074218.09375.128906.175781.128906 7.082032.164062 12.726563 5.914062 12.726563 13.039062 0 7.230469-5.8125 13.042969-13.042969 13.042969h-27.703125c-.027343-.011719-.050781-.019531-.082031-.019531h-7.394531c-4.609375 0-8.320313-3.828125-8.320313-8.601562v-.941407c0-4.589843 3.433594-8.304687 7.789063-8.585937.105469-.007813.183593-.09375.175781-.195313-.015625-.347656-.027344-.699219-.027344-1.050781v-.5625c0-10.746094 8.183594-19.378906 18.335938-19.378906zm0 0" fill="#212121"/><path d="m26.179688 15.984375c-1.105469 0-2 .894531-2 2v11.863281c-.035157.214844-.035157.433594 0 .644532v12.886718c-.007813.71875.371093 1.386719.992187 1.75.621094.359375 1.390625.359375 2.011719 0 .621094-.363281 1-1.03125.992187-1.75v-11.207031h10.191407c1.105468 0 1.996093-.894531 2-2 0-6.425781-1.734376-10.347656-4.699219-12.328125-2.96875-1.976562-6.441407-1.859375-9.488281-1.859375zm1.996093 4.027344c2.179688.074219 4.035157.332031 5.273438 1.15625 1.40625.9375 2.589843 2.71875 2.863281 7.007812h-8.136719zm0 0" fill="url(#h)"/><path d="m27.339844 15.984375c-.394532 0-.78125 0-1.160156 0-1.105469 0-2 .894531-2 2v.992187c0-1.101562.894531-1.996093 2-1.996093 3.046874 0 6.519531-.117188 9.488281 1.859375 2.839843 1.894531 4.546875 5.566406 4.6875 11.515625.007812-.0625.007812-.121094.011719-.183594 0-6.425781-1.734376-10.347656-4.699219-12.328125-2.597657-1.730469-5.582031-1.855469-8.328125-1.859375zm.835937 12.191406v.996094h8.136719c-.023438-.347656-.050781-.679687-.085938-.996094zm-3.996093 1.671875c-.035157.214844-.035157.433594 0 .644532zm0 0" fill="#fff"/><path d="m28.175781 20.09375v1.015625c2.179688.074219 4.035157.332031 5.273438 1.15625 1.289062.859375 2.390625 2.429687 2.773437 5.992187h.089844c-.273438-4.289062-1.457031-6.070312-2.863281-7.007812-1.238281-.824219-3.09375-1.078125-5.273438-1.15625zm12.179688 10.347656c-.09375 1.023438-.957031 1.8125-1.988281 1.8125h-10.191407v1.015625h10.191407c1.105468 0 1.996093-.894531 2-2 0-.28125-.003907-.558593-.011719-.828125zm-16.175781.503906c-.035157.214844-.035157.433594 0 .644532zm0 12.515626v1.015624c-.007813.71875.371093 1.386719.992187 1.75.621094.363282 1.390625.363282 2.011719 0 .621094-.363281 1-1.03125.992187-1.75v-1.015624c.007813.71875-.371093 1.386718-.992187 1.75-.621094.363281-1.390625.363281-2.011719 0-.621094-.363282-1-1.03125-.992187-1.75zm0 0" fill-opacity=".235294"/><path d="m209.417502-87.13721c-8.842906 0-15.998473 7.155566-15.998473 15.998472v94.897188c-.281223 1.718586-.281223 3.468418 0 5.155757v103.083906c-.062494 5.749451 2.968467 11.092691 7.936742 13.998664 4.968276 2.874725 11.123938 2.874725 16.092214 0 4.968275-2.905973 7.999236-8.249213 7.936742-13.998664v-89.647689h81.523465c8.842905 0 15.967225-7.155566 15.998472-15.998472 0-51.401341-13.873675-82.773346-37.59016-98.615583-23.747733-15.81099-51.52633-14.873579-75.899002-14.873579zm15.967225 32.215673c17.435835.593694 32.278167 2.655997 42.183472 9.249117 11.248925 7.499284 20.716771 21.747923 22.904062 56.057147h-65.087534zm0 0" fill="none" stroke="#212121" stroke-linecap="round" stroke-linejoin="round" stroke-width="3" transform="matrix(.125012 0 0 .125012 0 26.877566)"/></svg>

<?xml version="1.0" encoding="UTF-8"?>
<svg xmlns="http://www.w3.org/2000/svg" xmlns:xlink="http://www.w3.org/1999/xlink" width="64pt" height="64pt" viewBox="0 0 64 64" version="1.1">
<defs>
<radialGradient id="radial0" gradientUnits="userSpaceOnUse" cx="450.908936" cy="189.579361" fx="450.908936" fy="189.579361" r="21.166656" gradientTransform="matrix(0.000000348341,-0.156265,-0.281277,-0.000000203077,100.29217,121.396245)">
<stop offset="0" style="stop-color:rgb(0%,0%,0%);stop-opacity:0.313726;"/>
<stop offset="0.222222" style="stop-color:rgb(0%,0%,0%);stop-opacity:0.27451;"/>
<stop offset="1" style="stop-color:rgb(0%,0%,0%);stop-opacity:0;"/>
</radialGradient>
<radialGradient id="radial1" gradientUnits="userSpaceOnUse" cx="450.908936" cy="189.579361" fx="450.908936" fy="189.579361" r="21.166656" gradientTransform="matrix(-0.000000348341,0.156265,0.281277,0.000000203077,-39.432195,-20.849378)">
<stop offset="0" style="stop-color:rgb(0%,0%,0%);stop-opacity:0.313726;"/>
<stop offset="0.222222" style="stop-color:rgb(0%,0%,0%);stop-opacity:0.27451;"/>
<stop offset="1" style="stop-color:rgb(0%,0%,0%);stop-opacity:0;"/>
</radialGradient>
<radialGradient id="radial2" gradientUnits="userSpaceOnUse" cx="450.908936" cy="189.579361" fx="450.908936" fy="189.579361" r="21.166656" gradientTransform="matrix(-0.000000348341,-0.156265,0.281277,-0.000000203077,-39.432195,121.396245)">
<stop offset="0" style="stop-color:rgb(0%,0%,0%);stop-opacity:0.313726;"/>
<stop offset="0.222222" style="stop-color:rgb(0%,0%,0%);stop-opacity:0.27451;"/>
<stop offset="1" style="stop-color:rgb(0%,0%,0%);stop-opacity:0;"/>
</radialGradient>
<radialGradient id="radial3" gradientUnits="userSpaceOnUse" cx="450.908936" cy="189.579361" fx="450.908936" fy="189.579361" r="21.166656" gradientTransform="matrix(0.000000348341,0.156265,-0.281277,0.000000203077,100.292166,-20.849379)">
<stop offset="0" style="stop-color:rgb(0%,0%,0%);stop-opacity:0.313726;"/>
<stop offset="0.222222" style="stop-color:rgb(0%,0%,0%);stop-opacity:0.27451;"/>
<stop offset="1" style="stop-color:rgb(0%,0%,0%);stop-opacity:0;"/>
</radialGradient>
<linearGradient id="linear0" gradientUnits="userSpaceOnUse" x1="255.323059" y1="233.5" x2="255.323044" y2="254.666656" gradientTransform="matrix(0.0267201,0,0,0.125012,20.30012,21.083153)">
<stop offset="0" style="stop-color:rgb(0%,0%,0%);stop-opacity:0.27451;"/>
<stop offset="1" style="stop-color:rgb(0%,0%,0%);stop-opacity:0;"/>
</linearGradient>
<linearGradient id="linear1" gradientUnits="userSpaceOnUse" x1="254" y1="191.166672" x2="254" y2="-126.333344" gradientTransform="matrix(0.125012,0,0,0.125012,0,26.37532)">
<stop offset="0" style="stop-color:rgb(14.901961%,77.64706%,85.490197%);stop-opacity:1;"/>
<stop offset="1" style="stop-color:rgb(30.19608%,81.568629%,88.235295%);stop-opacity:1;"/>
</linearGradient>
<linearGradient id="linear2" gradientUnits="userSpaceOnUse" x1="148.166672" y1="274.559265" x2="148.166672" y2="41.725941" gradientTransform="matrix(0.125012,0,0,0.125012,13.230429,11.160324)">
<stop offset="0" style="stop-color:rgb(87.843138%,87.843138%,87.843138%);stop-opacity:1;"/>
<stop offset="1" style="stop-color:rgb(93.333334%,93.333334%,93.333334%);stop-opacity:1;"/>
</linearGradient>
</defs>
<g id="surface1">
<path style=" stroke:none;fill-rule:nonzero;fill:url(#radial0);" d="M 47.628906 50.273438 L 52.921875 50.273438 L 52.921875 47.628906 L 47.628906 47.628906 Z M 47.628906 50.273438 "/>
<path style=" stroke:none;fill-rule:nonzero;fill:url(#radial1);" d="M 13.230469 50.273438 L 7.9375 50.273438 L 7.9375 52.917969 L 13.230469 52.917969 Z M 13.230469 50.273438 "/>
<path style=" stroke:none;fill-rule:nonzero;fill:url(#radial2);" d="M 13.230469 50.273438 L 7.9375 50.273438 L 7.9375 47.628906 L 13.230469 47.628906 Z M 13.230469 50.273438 "/>
<path style=" stroke:none;fill-rule:nonzero;fill:url(#radial3);" d="M 47.628906 50.273438 L 52.921875 50.273438 L 52.921875 52.917969 L 47.628906 52.917969 Z M 47.628906 50.273438 "/>
<path style=" stroke:none;fill-rule:nonzero;fill:url(#linear0);" d="M 13.230469 49.613281 L 47.628906 49.613281 L 47.628906 52.917969 L 13.230469 52.917969 Z M 13.230469 49.613281 "/>
<path style=" stroke:none;fill-rule:nonzero;fill:url(#linear1);" d="M 30.402344 10.558594 C 20.140625 10.558594 11.878906 19.285156 11.878906 30.125 L 11.878906 30.6875 C 11.878906 31.042969 11.890625 31.398438 11.90625 31.746094 C 7.449219 32.035156 3.941406 35.835938 3.941406 40.519531 L 3.941406 41.460938 C 3.941406 46.332031 7.734375 50.25 12.449219 50.25 L 19.84375 50.25 L 19.84375 50.269531 L 47.628906 50.269531 C 54.960938 50.269531 60.859375 44.367188 60.859375 37.039062 C 60.859375 29.816406 55.128906 23.980469 47.949219 23.8125 C 45.472656 16.089844 38.574219 10.558594 30.402344 10.558594 Z M 30.402344 10.558594 "/>
<path style=" stroke:none;fill-rule:nonzero;fill:rgb(98.039216%,98.039216%,98.039216%);fill-opacity:0.392157;" d="M 13.179688 31.75 C 8.023438 31.75 3.871094 35.882812 3.871094 41.011719 C 3.871094 41.152344 3.875 41.289062 3.878906 41.425781 C 4.09375 36.488281 8.160156 32.578125 13.179688 32.578125 C 18.199219 32.578125 22.265625 36.488281 22.480469 41.425781 C 22.488281 41.289062 22.492188 41.152344 22.492188 41.011719 C 22.492188 35.882812 18.339844 31.75 13.179688 31.75 Z M 13.179688 31.75 "/>
<path style=" stroke:none;fill-rule:nonzero;fill:rgb(100%,100%,100%);fill-opacity:0.392157;" d="M 30.402344 10.558594 C 20.140625 10.558594 11.878906 19.285156 11.878906 30.125 L 11.878906 30.6875 C 11.878906 30.761719 11.882812 30.832031 11.882812 30.90625 C 12 20.175781 20.214844 11.574219 30.402344 11.574219 C 38.574219 11.574219 45.472656 17.105469 47.949219 24.828125 C 54.960938 24.992188 60.589844 30.558594 60.851562 37.546875 C 60.855469 37.378906 60.859375 37.207031 60.859375 37.039062 C 60.859375 29.816406 55.128906 23.980469 47.949219 23.8125 C 45.472656 16.089844 38.574219 10.558594 30.402344 10.558594 Z M 11.882812 31.75 C 7.433594 32.046875 3.941406 35.847656 3.941406 40.519531 L 3.941406 41.460938 C 3.941406 41.472656 3.941406 41.484375 3.941406 41.496094 C 3.960938 36.832031 7.460938 33.046875 11.90625 32.761719 C 11.890625 32.425781 11.882812 32.089844 11.882812 31.75 Z M 11.882812 31.75 "/>
<path style=" stroke:none;fill-rule:nonzero;fill:rgb(0%,0%,0%);fill-opacity:0.235294;" d="M 11.882812 29.890625 C 11.882812 29.96875 11.878906 30.046875 11.878906 30.125 L 11.878906 30.6875 C 11.878906 30.703125 11.882812 30.71875 11.882812 30.734375 C 11.890625 30.734375 11.898438 30.734375 11.90625 30.734375 C 11.894531 30.453125 11.886719 30.171875 11.882812 29.890625 Z M 60.851562 36.53125 C 60.585938 43.625 54.789062 49.257812 47.628906 49.257812 L 19.84375 49.257812 L 19.84375 49.238281 L 12.449219 49.238281 C 7.746094 49.238281 3.960938 45.335938 3.941406 40.484375 C 3.941406 40.496094 3.941406 40.507812 3.941406 40.519531 L 3.941406 41.460938 C 3.941406 46.332031 7.734375 50.25 12.449219 50.25 L 19.84375 50.25 L 19.84375 50.269531 L 47.628906 50.269531 C 54.960938 50.269531 60.859375 44.367188 60.859375 37.039062 C 60.859375 36.867188 60.855469 36.699219 60.851562 36.53125 Z M 60.851562 36.53125 "/>
<path style=" stroke:none;fill-rule:nonzero;fill:rgb(98.039216%,98.039216%,98.039216%);fill-opacity:0.392157;" d="M 47.960938 23.8125 C 40.8125 23.8125 35.0625 29.714844 35.0625 37.042969 C 35.0625 37.210938 35.0625 37.375 35.070312 37.539062 C 35.324219 30.441406 40.976562 24.804688 47.960938 24.804688 C 54.945312 24.804688 60.597656 30.441406 60.851562 37.539062 C 60.855469 37.375 60.859375 37.210938 60.859375 37.042969 C 60.859375 29.714844 55.105469 23.8125 47.960938 23.8125 Z M 47.960938 23.8125 "/>
<path style=" stroke:none;fill-rule:nonzero;fill:rgb(12.941177%,12.941177%,12.941177%);fill-opacity:1;" d="M 30.402344 10.371094 C 20.035156 10.371094 11.691406 19.191406 11.691406 30.125 L 11.691406 30.6875 C 11.691406 30.988281 11.703125 31.285156 11.714844 31.582031 C 7.246094 31.964844 3.753906 35.808594 3.753906 40.519531 L 3.753906 41.460938 C 3.753906 46.429688 7.632812 50.4375 12.449219 50.4375 L 19.765625 50.4375 C 19.792969 50.449219 19.816406 50.457031 19.84375 50.457031 L 47.628906 50.457031 C 55.058594 50.457031 61.046875 44.46875 61.046875 37.039062 C 61.046875 29.761719 55.300781 23.875 48.082031 23.632812 C 45.550781 15.902344 38.613281 10.371094 30.402344 10.371094 Z M 30.402344 10.746094 C 38.488281 10.746094 45.316406 16.21875 47.769531 23.871094 C 47.792969 23.945312 47.863281 24 47.945312 24 C 55.027344 24.164062 60.671875 29.914062 60.671875 37.039062 C 60.671875 44.269531 54.859375 50.082031 47.628906 50.082031 L 19.925781 50.082031 C 19.898438 50.070312 19.875 50.0625 19.84375 50.0625 L 12.449219 50.0625 C 7.839844 50.0625 4.128906 46.234375 4.128906 41.460938 L 4.128906 40.519531 C 4.128906 35.929688 7.5625 32.214844 11.917969 31.933594 C 12.023438 31.925781 12.101562 31.839844 12.09375 31.738281 C 12.078125 31.390625 12.066406 31.039062 12.066406 30.6875 L 12.066406 30.125 C 12.066406 19.378906 20.25 10.746094 30.402344 10.746094 Z M 30.402344 10.746094 "/>
<path style=" stroke:none;fill-rule:nonzero;fill:url(#linear2);" d="M 26.179688 15.984375 C 25.074219 15.984375 24.179688 16.878906 24.179688 17.984375 L 24.179688 29.847656 C 24.144531 30.0625 24.144531 30.28125 24.179688 30.492188 L 24.179688 43.378906 C 24.171875 44.097656 24.550781 44.765625 25.171875 45.128906 C 25.792969 45.488281 26.5625 45.488281 27.183594 45.128906 C 27.804688 44.765625 28.183594 44.097656 28.175781 43.378906 L 28.175781 32.171875 L 38.367188 32.171875 C 39.472656 32.171875 40.363281 31.277344 40.367188 30.171875 C 40.367188 23.746094 38.632812 19.824219 35.667969 17.84375 C 32.699219 15.867188 29.226562 15.984375 26.179688 15.984375 Z M 28.175781 20.011719 C 30.355469 20.085938 32.210938 20.34375 33.449219 21.167969 C 34.855469 22.105469 36.039062 23.886719 36.3125 28.175781 L 28.175781 28.175781 Z M 28.175781 20.011719 "/>
<path style=" stroke:none;fill-rule:nonzero;fill:rgb(100%,100%,100%);fill-opacity:1;" d="M 27.339844 15.984375 C 26.945312 15.984375 26.558594 15.984375 26.179688 15.984375 C 25.074219 15.984375 24.179688 16.878906 24.179688 17.984375 L 24.179688 18.976562 C 24.179688 17.875 25.074219 16.980469 26.179688 16.980469 C 29.226562 16.980469 32.699219 16.863281 35.667969 18.839844 C 38.507812 20.734375 40.214844 24.40625 40.355469 30.355469 C 40.363281 30.292969 40.363281 30.234375 40.367188 30.171875 C 40.367188 23.746094 38.632812 19.824219 35.667969 17.84375 C 33.070312 16.113281 30.085938 15.988281 27.339844 15.984375 Z M 28.175781 28.175781 L 28.175781 29.171875 L 36.3125 29.171875 C 36.289062 28.824219 36.261719 28.492188 36.226562 28.175781 Z M 24.179688 29.847656 C 24.144531 30.0625 24.144531 30.28125 24.179688 30.492188 Z M 24.179688 29.847656 "/>
<path style=" stroke:none;fill-rule:nonzero;fill:rgb(0%,0%,0%);fill-opacity:0.235294;" d="M 28.175781 20.09375 L 28.175781 21.109375 C 30.355469 21.183594 32.210938 21.441406 33.449219 22.265625 C 34.738281 23.125 35.839844 24.695312 36.222656 28.257812 L 36.3125 28.257812 C 36.039062 23.96875 34.855469 22.1875 33.449219 21.25 C 32.210938 20.425781 30.355469 20.171875 28.175781 20.09375 Z M 40.355469 30.441406 C 40.261719 31.464844 39.398438 32.253906 38.367188 32.253906 L 28.175781 32.253906 L 28.175781 33.269531 L 38.367188 33.269531 C 39.472656 33.269531 40.363281 32.375 40.367188 31.269531 C 40.367188 30.988281 40.363281 30.710938 40.355469 30.441406 Z M 24.179688 30.945312 C 24.144531 31.160156 24.144531 31.378906 24.179688 31.589844 Z M 24.179688 43.460938 L 24.179688 44.476562 C 24.171875 45.195312 24.550781 45.863281 25.171875 46.226562 C 25.792969 46.589844 26.5625 46.589844 27.183594 46.226562 C 27.804688 45.863281 28.183594 45.195312 28.175781 44.476562 L 28.175781 43.460938 C 28.183594 44.179688 27.804688 44.847656 27.183594 45.210938 C 26.5625 45.574219 25.792969 45.574219 25.171875 45.210938 C 24.550781 44.847656 24.171875 44.179688 24.179688 43.460938 Z M 24.179688 43.460938 "/>
<path style="fill:none;stroke-width:3;stroke-linecap:round;stroke-linejoin:round;stroke:rgb(12.941177%,12.941177%,12.941177%);stroke-opacity:1;stroke-miterlimit:4;" d="M 209.417502 -87.13721 C 200.574596 -87.13721 193.419029 -79.981644 193.419029 -71.138738 L 193.419029 23.75845 C 193.137806 25.477036 193.137806 27.226868 193.419029 28.914207 L 193.419029 131.998113 C 193.356535 137.747564 196.387496 143.090804 201.355771 145.996777 C 206.324047 148.871502 212.479709 148.871502 217.447985 145.996777 C 222.41626 143.090804 225.447221 137.747564 225.384727 131.998113 L 225.384727 42.350424 L 306.908192 42.350424 C 315.751097 42.350424 322.875417 35.194858 322.906664 26.351952 C 322.906664 -25.049389 309.032989 -56.421394 285.316504 -72.263631 C 261.568771 -88.074621 233.790174 -87.13721 209.417502 -87.13721 Z M 225.384727 -54.921537 C 242.820562 -54.327843 257.662894 -52.26554 267.568199 -45.67242 C 278.817124 -38.173136 288.28497 -23.924497 290.472261 10.384727 L 225.384727 10.384727 Z M 225.384727 -54.921537 " transform="matrix(0.125012,0,0,0.125012,0,26.877566)"/>
</g>
</svg>
